X: 08033
T: DEANNA'S WALTZ
C: Bob McQuillen 9 Sept 91
B: Bob's Note Book 8 #33
%R: waltz
Z: 2021 John Chambers <jc:trillian.mit.edu>
N: Thin double bars added every 8 bars.
M: 3/4
L: 1/4
K: G	% and Em
Bc |\
"G"d>ed | "C"cBc | "G"dg>d | "C"e2g/e/ | "G"d>ed | "Em"dBG | "G"BG>D | "C"E>FG ||\
"G"D>EG | "C"EDE | "G"GBd | "C"e<ge | "G"d>BG | "Em"GBd | "Am"dc>B |
  "D7"A2B/c/ ||\
"G"d>ed | "C"cBc | "G"d>eg | "C"e>dc | "G"B>cB | "C"AGA | "G"BA>G | "C"E.GE ||\
"G"D>EG | "C"EDE | "G"GBd | "C"e<ge | "G"dBd | "D7"B2A | "G"G3- | G |]
K: Em
[| GF |\
"Em"E>FG | "B7"FGA | "Em"B>GE | E2G/A/ | B>cd | "Am"cBA | "Em"GB>G | "B7"F2G/F/ ||\
"Em"E>FG | "B7"GFA | "Em"B>GE | EGA | B>cd | "Am"edc | "B7"B3- |
  B^c^d ||\
"Em"e>ge | edB | "D"d>ed | dBA | "Em"B<dB | "Am"AGA | "Em"B>AG | "Bm"FED ||\
"Em"E>FG | "B7"FGA | "Em"G>AB | "Am"ABc | "Em"BG>E | "Bm"DEF | "Em"E3- | E |]
%%begintext align
%% Deanna Stiles and I go back
%% to Dudley Laufman's Canterbury Country Dance Orchestra. Deanna's
%% a great flute player, and sometimes she'll have me up to Deefield (NH)
%% for supper (delicious!) and a few tunes. I should have written
%% this waltz for you years ago, Deanna! Thanks for all you
%% do with my tunes! (She keeps them safe for me in between books.
%% I really appreciate it. XXOO! P.S. [AN Mella]!)
%%endtext
N: The P.S. comment is hard to read.

%%sep 1 1 500

%%sep 1 1 500

